X:1001
T:Angels From the Realms of Glory
R:March
C:Trad.
O:France - Iris
N:Words by James Montgomery, 1816
Z:Paul Hardy's Xmas Parts Tunebook 2022 (see www.paulhardy.net). Creative Commons cc by-nc-sa licenced.
M:4/4
L:1/8
Q:1/4=125
%%score [1 2 3]
K:G
V:1
%%MIDI program 23 % Tango Accordion
%%voicecolor black
B2 B2 B2 Bd|d3 c B2 G2|B2 A2 B2 Bd|d3 c B4|B2 B2 B2 Bd|d3 c B2 G2|B2 B3/2A/ B2 Bd|d3 c B4|
d4 edcB|c4 dcBA|B4 cBAG|A4 D4|G2 A2 B2 c2|B4 A4|
d4 edcB|c4 dcBA|B4 cBAG|A4 D4|G2 A2 B2 c2|B4 A4|G8:|
V:2 transpose =-12
%%voicecolor maroon
%%MIDI program 42 % Cello
G4 G4|F2 A2 G4|D4 B,4|A,2 D2 G4|G4 D4|F2 F2 G4|G2 D2 D2 G,2|F2 D2 G4|
B2 A2 ^G2 E2|A2 G2 F2 D2|G2 F2 E2 C2|D2 E2 F2 D2|E2 F2 G2 A2|G4 F4|
B2 A2 ^G2 E2|A2 G2 F2 D2|G2 F2 E2 C2|D2 E2 F2 G2|E2 F2 G2 G2|G4 F4|[G8D8]:|
V:3
%%voicecolor teal
%%MIDI program 32 % Acoustic Bass
D2 D2 G4|D4 D4|G4 G4|F4 G4|D2 G2 B4|A4 G4|E4 B,4|F4 D4|
B4 ^G4|A4 F4|G4 E4|F8|E2 F2 G2 C2|D4 [F4D4]|
B4 ^G4|A4 F4|G4 E4|[A8F8]|E4 D2 C2|D4 D4|B,8:|

